logos/mantine-icon.svg

<?xml version="1.0" encoding="UTF-8"?>
<svg width="256px" height="258px" viewBox="0 0 256 258" version="1.1" xmlns="http://www.w3.org/2000/svg" preserveAspectRatio="xMidYMid">
    <title>Mantine</title>
    <g>
        <path d="M256,128.661462 C256,57.6040256 198.692764,0 128.001579,0 C57.307236,0 0,57.6040256 0,128.661462 C0,199.71732 57.307236,257.322924 128,257.322924 C198.692764,257.322924 256,199.71732 256,128.661462 Z" fill="#339AF0"></path>
        <path d="M110.576239,64.1112961 C113.131515,63.7322367 115.732489,64.3873097 117.803382,65.9315006 C122.045127,69.0941226 125.957985,72.6736512 129.483639,76.6158387 L130.356952,77.6089096 L157.966281,77.6089096 C163.351118,77.6089096 167.7114,81.9833993 167.7114,87.3856021 C167.7114,92.6692994 163.535209,96.9689431 158.323212,97.1574291 L157.966281,97.1638732 L142.716345,97.1638732 C146.976863,106.972949 149.164332,117.556643 149.141525,128.251008 C149.162617,138.562514 147.128867,148.770961 143.163326,158.281197 L142.714767,159.334986 L157.956809,159.334986 C163.343225,159.334986 167.703506,163.711054 167.703506,169.113257 C167.703506,174.395411 163.525806,178.69653 158.313743,178.885082 L157.956809,178.891528 L130.341165,178.891528 C126.593914,183.222991 122.387362,187.134708 117.795488,190.557887 C115.721906,192.104159 113.117303,192.759677 110.558801,192.37919 C108.000299,191.998704 105.69916,190.613633 104.165267,188.530877 C103.404349,187.500006 102.853394,186.327056 102.542396,185.079908 C101.912915,182.562661 102.306885,179.898533 103.637992,177.671218 C104.29395,176.572224 105.160994,175.613968 106.18912,174.851716 C121.098062,163.744206 129.657602,146.760893 129.657602,128.24943 C129.657602,109.737966 121.098062,92.7546528 106.18912,81.647143 C105.1598,80.8852681 104.291652,79.9269791 103.634834,78.8276415 C101.683295,75.5492681 101.807898,71.4513096 103.922165,68.3056034 L104.165267,67.9600893 C105.714597,65.8799458 108.016871,64.4957429 110.576239,64.1112961 Z M108.820759,111.521861 C110.598959,112.279936 112.206791,113.387434 113.548871,114.778653 C114.896111,116.17568 115.951712,117.826969 116.654111,119.636216 C117.358292,121.450582 117.69631,123.386407 117.648672,125.332051 C117.561139,129.13352 116.001969,132.752719 113.299441,135.427634 C110.614916,138.084205 106.991684,139.575924 103.214909,139.579532 C99.4370391,139.576755 95.8125215,138.084974 93.1272185,135.427634 C90.4246906,132.752719 88.8655204,129.13352 88.7779874,125.332051 C88.7314385,123.386203 89.0705282,121.450387 89.7757058,119.636216 C90.4781052,117.826969 91.5337061,116.17568 92.8809462,114.778653 C94.2225354,113.387575 95.8298224,112.280082 97.6074789,111.521861 C101.18943,109.99559 105.238808,109.99559 108.820759,111.521861 Z" fill="#FFFFFF"></path>
    </g>
</svg>

<svg preserveAspectRatio="xMidYMid" viewBox="0 0 256 258" xmlns="http://www.w3.org/2000/svg">
  <path fill="#339AF0" d="M256 128.661C256 57.604 198.693 0 128.002 0 57.307 0 0 57.604 0 128.661c0 71.056 57.307 128.662 128 128.662s128-57.606 128-128.662Z"/>
  <path fill="#FFF" d="M110.576 64.111a9.707 9.707 0 0 1 7.227 1.82 79.107 79.107 0 0 1 11.68 10.685l.874.993h27.61c5.384 0 9.744 4.374 9.744 9.777 0 5.283-4.176 9.583-9.388 9.771l-.357.007h-15.25a77.617 77.617 0 0 1 6.426 31.087 77.617 77.617 0 0 1-5.979 30.03l-.448 1.054h15.242c5.386 0 9.747 4.376 9.747 9.778 0 5.282-4.178 9.584-9.39 9.772l-.357.007H130.34a79.11 79.11 0 0 1-12.546 11.666 9.715 9.715 0 0 1-13.63-2.027 9.805 9.805 0 0 1-1.623-3.451 9.805 9.805 0 0 1 1.096-7.409 9.696 9.696 0 0 1 2.551-2.82c14.91-11.107 23.469-28.09 23.469-46.602 0-18.511-8.56-35.494-23.469-46.602a9.693 9.693 0 0 1-2.554-2.82 9.842 9.842 0 0 1 .287-10.521l.243-.346a9.813 9.813 0 0 1 6.411-3.849Zm-1.755 47.41a14.435 14.435 0 0 1 4.728 3.258 14.62 14.62 0 0 1 3.105 4.857 14.745 14.745 0 0 1 .995 5.696 14.68 14.68 0 0 1-4.35 10.096 14.356 14.356 0 0 1-10.084 4.152 14.356 14.356 0 0 1-10.088-4.152 14.68 14.68 0 0 1-4.349-10.096 14.748 14.748 0 0 1 .998-5.696 14.62 14.62 0 0 1 3.105-4.857 14.434 14.434 0 0 1 4.726-3.257 14.303 14.303 0 0 1 11.214 0Z"/>
</svg>
